X:1
T:Partition sans titre
C:Compositeur / Arrangeur
L:1/8
M:4/4
I:linebreak $
K:D
V:1 treble nm="Violon" snm="Vln."
V:1
"D" ABAG FE D2 | FAde fd e2 |"A" ceAe cede |"D" dBAG FG A2 |"D" ABAG FE D2 | FAde fd e2 | %6
"A" ceAe cede |1"D" dc d3 B A2 :|2"D" dcde fgag |:"D" dfaf dfgf |"A" ef g3 gfe |1"D" dfed cdea | %12
"A" a^g a2 f=gaf :|2"D" dfed cede |"A" dcde fgag :|3"D" dfed cB A2 |"A" ABAG FG A2 || %17
"D" ABAG FE D2 | FAde fd e2 |"A" ceAe cede |"D" dc z c d4 |] %21
